{"compressionlevel":-1,"infinite":false,"orientation":"orthogonal","renderorder":"right-down","width":36,"height":24,"tilewidth":24,"tileheight":24,"nextlayerid":99,"nextobjectid":20,"version":"1.10","tiledversion":"1.10.2","type":"map","tilesets":[{"firstgid":1,"columns":16,"image":"../tilesets/lab-tileset.png","imageheight":768,"imagewidth":384,"margin":0,"name":"office-tileset","spacing":0,"tilecount":512,"tileheight":24,"tilewidth":24},{"firstgid":513,"source":"A5 Office Floors & Walls.tsx"},{"firstgid":1025,"source":"interiors.tsx"}],"layers":[{"id":1,"name":"floor","type":"tilelayer","data":[0,0,0,0,0,0,0,0,0,0,0,0,0,0,0,0,0,0,0,0,0,0,0,0,0,0,0,0,0,0,0,0,0,0,0,0,0,783,784,783,784,783,784,783,784,783,784,783,784,783,784,783,784,783,784,783,784,783,784,783,784,783,784,783,784,783,784,783,784,783,784,0,0,799,800,799,800,799,800,799,800,799,800,799,800,799,800,799,800,799,800,799,800,799,800,799,800,799,800,799,800,799,800,799,800,799,800,0,0,783,784,783,784,783,784,783,784,783,784,783,784,783,784,783,784,783,784,783,784,783,784,783,784,783,784,783,784,783,784,783,784,783,784,0,0,799,800,799,800,799,800,799,800,799,800,799,800,799,800,799,800,799,800,799,800,799,800,799,800,799,800,799,800,799,800,799,800,799,800,0,0,783,784,783,784,783,784,783,784,783,784,783,784,783,784,783,784,783,784,783,784,783,784,783,784,783,784,783,784,783,784,783,784,783,784,0,0,799,800,799,800,799,800,799,800,799,800,799,800,799,800,799,800,799,800,799,800,799,800,799,800,799,800,799,800,799,800,799,800,799,800,0,0,783,784,783,784,783,784,783,784,783,784,783,784,783,784,783,784,783,784,783,784,783,784,783,784,783,784,783,784,783,784,783,784,783,784,0,0,799,800,799,800,799,800,799,800,799,800,799,800,799,800,799,800,799,800,799,800,799,800,799,800,799,800,799,800,799,800,799,800,799,800,0,0,783,784,783,784,783,784,783,784,783,784,783,784,783,784,783,784,783,784,783,784,783,784,783,784,783,784,783,784,783,784,783,784,783,784,0,0,799,800,799,800,799,800,799,800,799,800,799,800,799,800,799,800,799,800,799,800,799,800,799,800,799,800,799,800,799,800,799,800,799,800,0,0,783,784,783,784,783,784,783,784,783,784,783,784,783,784,783,784,783,784,783,784,783,784,783,784,783,784,783,784,783,784,783,784,783,784,0,0,799,800,799,800,799,800,799,800,799,800,799,800,799,800,799,800,799,800,799,800,799,800,799,800,799,800,799,800,799,800,799,800,799,800,0,0,783,784,783,784,783,784,783,784,783,784,783,784,783,784,783,784,783,784,783,784,783,784,783,784,783,784,783,784,783,784,783,784,783,784,0,0,799,800,799,800,799,800,799,800,799,800,799,800,799,800,799,800,799,800,799,800,799,800,799,800,799,800,799,800,799,800,799,800,799,800,0,0,783,784,783,784,783,784,783,784,783,784,783,784,783,784,783,784,783,784,783,784,783,784,783,784,783,784,783,784,783,784,783,784,783,784,0,0,799,800,799,800,799,800,799,800,799,800,799,800,799,800,799,800,799,800,799,800,799,800,799,800,799,800,799,800,799,800,799,800,799,800,0,0,783,784,783,784,783,784,783,784,783,784,783,784,783,784,783,784,783,784,783,784,783,784,783,784,783,784,783,784,783,784,783,784,783,784,0,0,799,800,799,800,799,800,799,800,799,800,799,800,799,800,799,800,799,800,799,800,799,800,799,800,799,800,799,800,799,800,799,800,799,800,0,0,783,784,783,784,783,784,783,784,783,784,783,784,783,784,783,784,783,784,783,784,783,784,783,784,783,784,783,784,783,784,783,784,783,784,0,0,799,800,799,800,799,800,799,800,799,800,799,800,799,800,799,800,799,800,799,800,799,800,799,800,799,800,799,800,799,800,799,800,799,800,0,0,783,784,783,784,783,784,783,784,783,784,783,784,783,784,783,784,783,784,783,784,783,784,783,784,783,784,783,784,783,784,783,784,783,784,0,0,799,800,799,800,799,800,799,800,799,800,799,800,799,800,799,800,799,800,799,800,799,800,799,800,799,800,799,800,799,800,799,800,799,800,0,0,0,0,0,0,0,0,0,0,0,0,0,0,0,0,0,0,783,784,0,0,0,0,0,0,0,0,0,0,0,0,0,0,0,0,0],"width":36,"height":24,"x":0,"y":0,"opacity":1,"visible":true},{"id":2,"name":"walls","type":"tilelayer","data":[570,570,570,570,570,570,570,570,570,570,570,570,570,570,570,570,570,570,570,570,570,570,570,570,570,570,570,570,570,570,570,570,570,570,570,570,570,0,0,0,0,0,0,0,0,0,0,570,0,0,0,0,0,0,0,0,0,0,0,0,0,0,0,570,0,0,0,0,0,0,0,570,570,0,0,0,0,0,0,0,0,0,0,570,0,0,0,0,0,0,0,0,0,0,0,0,0,0,0,570,0,0,0,0,0,0,0,570,570,0,0,0,0,0,0,0,0,0,0,570,0,0,0,0,0,0,0,0,0,0,0,0,0,0,0,570,0,0,0,0,0,0,0,570,570,0,0,0,0,0,0,0,0,0,0,570,0,0,0,0,0,0,0,0,0,0,0,0,0,0,0,570,0,0,0,0,0,0,0,570,570,0,0,0,0,0,0,0,0,0,0,570,0,0,0,0,0,0,0,0,0,0,0,0,0,0,0,570,0,0,0,0,0,0,0,570,570,0,0,0,0,0,0,0,0,0,0,570,0,0,0,0,0,0,0,0,0,0,0,0,0,0,0,570,0,0,0,0,0,0,0,570,570,0,0,0,0,0,0,0,0,0,0,570,0,0,0,0,0,0,0,0,0,0,0,0,0,0,0,570,0,0,0,0,0,0,0,570,570,570,570,570,570,0,0,570,570,570,570,570,0,0,0,0,0,0,0,0,0,0,0,0,0,0,0,570,570,570,0,0,570,570,570,570,570,0,0,0,0,0,0,0,0,0,0,0,0,0,0,0,0,0,0,0,0,0,0,0,0,0,0,570,0,0,0,0,0,0,0,570,570,0,0,0,0,0,0,0,0,0,0,0,0,0,0,0,0,0,0,0,0,0,0,0,0,0,0,570,0,0,0,0,0,0,0,570,570,0,0,0,0,0,0,0,0,0,0,0,0,0,0,0,0,0,0,0,0,0,0,0,0,0,0,0,0,0,0,0,0,0,0,570,570,0,0,0,0,0,0,0,0,0,0,0,0,0,0,0,0,0,0,0,0,0,0,0,0,0,0,0,0,0,0,0,0,0,0,570,570,0,0,0,0,0,0,0,0,0,0,0,0,0,0,0,0,0,0,0,0,0,0,0,0,0,0,570,0,0,0,0,0,0,0,570,570,0,0,0,0,0,0,0,0,0,0,0,0,0,0,0,0,0,0,0,0,0,0,0,0,0,0,570,0,0,0,0,0,0,0,570,570,0,0,0,0,0,0,0,0,0,0,0,0,0,0,0,0,0,0,0,0,0,0,0,0,0,0,570,0,0,0,0,0,0,0,570,570,0,0,0,0,0,0,0,0,0,0,0,0,0,0,0,0,0,0,0,0,0,0,0,0,0,0,570,0,0,0,0,0,0,0,570,570,0,0,0,0,0,0,0,0,0,0,0,0,0,0,0,0,0,0,0,0,0,0,0,0,0,0,570,0,0,0,0,0,0,0,570,570,0,0,0,0,0,0,0,0,0,0,0,0,0,0,0,0,0,0,0,0,0,0,0,0,0,0,570,0,0,0,0,0,0,0,570,570,0,0,0,0,0,0,0,0,0,0,0,0,0,0,0,0,0,0,0,0,0,0,0,0,0,0,570,0,0,0,0,0,0,0,570,570,0,0,0,0,0,0,0,0,0,0,0,0,0,0,0,0,0,0,0,0,0,0,0,0,0,0,570,0,0,0,0,0,0,0,570,570,0,0,0,0,0,0,0,0,0,0,0,0,0,0,0,0,0,0,0,0,0,0,0,0,0,0,570,0,0,0,0,0,0,0,570,570,0,0,0,0,0,0,0,0,0,0,0,0,0,0,0,0,0,0,0,0,0,0,0,0,0,0,570,0,0,0,0,0,0,0,570,570,570,570,570,570,570,570,570,570,570,570,570,570,570,570,570,570,0,0,570,570,570,570,570,570,570,570,570,570,570,570,570,570,570,570,570],"width":36,"height":24,"x":0,"y":0,"opacity":1,"visible":true},{"id":3,"name":"furniture-below","type":"tilelayer","data":[0,0,0,0,0,0,0,0,0,0,0,0,0,0,0,0,0,0,0,0,0,0,0,0,0,0,0,0,0,0,0,0,0,0,0,0,0,0,0,0,0,0,0,0,0,0,0,0,0,0,0,0,0,0,0,0,0,0,0,0,0,0,0,0,0,0,0,0,0,0,0,0,0,0,0,0,0,0,0,0,0,0,0,0,0,0,0,0,0,0,0,0,0,0,0,0,0,0,0,0,0,0,0,0,0,0,0,0,0,0,0,0,0,0,0,0,0,0,0,0,0,0,0,0,0,0,0,0,0,0,0,0,0,0,0,0,0,0,0,0,0,0,0,0,0,0,0,0,0,0,0,0,0,0,0,0,0,0,0,0,0,0,0,0,0,0,0,0,0,0,0,0,0,0,2,3,4,0,0,0,0,0,0,0,0,0,0,0,0,0,0,0,0,0,0,0,0,0,0,0,0,0,0,0,0,0,0,0,0,0,0,289,0,0,0,0,0,0,0,0,0,0,0,0,0,0,0,0,0,0,0,0,0,0,0,0,0,0,0,0,0,0,0,0,0,0,0,305,0,0,0,0,0,0,0,0,0,0,0,0,0,0,0,0,0,0,0,0,0,0,0,0,0,0,0,0,0,0,0,0,0,0,0,0,0,0,0,0,0,0,0,0,0,0,0,0,0,0,0,0,0,0,0,0,0,0,0,0,0,0,0,0,0,0,0,0,0,0,0,0,0,0,0,0,0,0,0,0,0,0,0,0,0,0,0,0,0,0,0,0,0,0,0,0,0,0,0,0,0,0,0,0,0,0,0,0,0,0,0,0,0,0,0,0,0,0,0,0,0,0,0,0,0,0,0,0,0,0,0,0,0,0,0,0,0,0,0,0,0,0,0,0,0,0,0,0,0,0,0,0,0,0,0,0,0,0,0,0,0,0,0,0,0,0,0,0,0,0,0,0,0,0,0,0,0,0,0,0,0,0,0,0,0,0,0,0,2,3,4,0,0,2,3,4,0,0,2,3,4,0,0,2,3,4,0,0,0,0,0,0,0,0,0,0,0,0,0,0,0,0,0,0,0,289,0,0,0,0,289,0,0,0,0,289,0,0,0,0,289,0,0,0,0,0,0,0,0,0,0,0,0,0,0,0,0,0,0,0,0,305,0,0,0,0,305,0,0,0,0,305,0,0,0,0,305,0,0,0,0,0,0,0,0,0,0,0,0,0,0,0,0,0,0,0,0,0,0,0,0,0,0,0,0,0,0,0,0,0,0,0,0,0,0,0,0,0,0,0,0,0,0,0,0,0,0,0,0,0,0,0,0,0,0,0,0,0,0,0,0,0,0,0,0,0,0,0,0,0,0,0,0,0,0,0,0,0,0,0,0,0,0,0,0,0,0,0,0,0,0,0,0,0,0,0,0,0,0,0,0,0,0,0,0,0,0,0,0,0,0,0,0,0,0,0,0,0,0,0,0,0,0,0,2,3,4,0,0,2,3,4,0,0,2,3,4,0,0,2,3,4,0,0,0,0,0,0,0,0,0,0,0,0,0,0,0,0,0,0,0,289,0,0,0,0,289,0,0,0,0,289,0,0,0,0,289,0,0,0,0,0,0,0,0,0,0,0,0,0,0,0,0,0,0,0,0,305,0,0,0,0,305,0,0,0,0,305,0,0,0,0,305,0,0,0,0,0,0,0,0,0,0,0,0,0,0,0,0,0,0,0,0,0,0,0,0,0,0,0,0,0,0,0,0,0,0,0,0,0,0,0,0,0,0,0,0,0,0,0,0,0,0,0,0,0,0,0,0,0,0,0,0,0,0,0,0,0,0,0,0,0,0,0,0,0,0,0,0,0,0,0,0,0,0,0,0,0,0,0,0,0,0,0,0,0,0,0,0,0,0,0,0,0,0,0,0,0,0,0,0,0,0,0,0,0,0,0,0,0,0,0,0,0,0,0],"width":36,"height":24,"x":0,"y":0,"opacity":1,"visible":true},{"id":4,"name":"furniture-above","type":"tilelayer","data":[0,0,0,0,0,0,0,0,0,0,0,0,0,0,0,0,0,0,0,0,0,0,0,0,0,0,0,0,0,0,0,0,0,0,0,0,0,0,0,0,0,0,0,0,0,0,0,0,0,0,0,0,0,0,0,0,0,0,0,0,0,0,0,0,0,0,0,0,0,0,0,0,0,0,0,0,0,0,0,0,0,0,0,0,0,0,0,0,0,0,0,0,0,0,0,0,0,0,0,0,0,0,0,0,0,0,0,0,0,0,0,0,0,0,0,0,0,0,0,0,0,0,0,0,0,0,0,0,0,0,0,0,0,0,0,0,0,0,0,365,366,0,0,0,0,0,0,0,0,0,0,0,0,0,0,0,0,0,0,0,0,0,0,0,0,0,0,0,0,0,0,0,0,0,0,381,382,0,0,0,0,0,0,0,0,0,0,0,0,0,0,0,0,0,0,0,0,0,0,0,0,0,0,0,0,0,0,0,0,0,18,19,20,0,0,0,0,0,0,0,0,0,0,0,0,0,0,0,0,0,0,0,0,0,0,0,0,0,0,0,0,0,0,0,0,0,0,0,0,0,0,0,0,0,0,0,0,0,0,0,0,0,0,0,0,0,0,0,0,0,0,0,0,0,0,0,0,0,0,0,0,0,0,0,0,0,0,0,0,0,0,0,0,0,0,0,0,0,0,0,0,0,0,0,0,0,0,0,0,0,0,0,0,0,0,0,0,0,0,0,0,0,0,0,0,0,0,0,0,0,0,0,0,0,0,0,0,0,0,0,0,0,0,0,0,0,0,0,0,0,0,0,0,0,0,0,0,0,0,0,0,0,0,0,0,0,0,0,0,0,0,0,0,0,0,0,0,0,0,0,0,0,0,0,0,0,0,0,0,0,0,0,0,0,0,0,0,0,0,0,0,365,366,0,0,0,365,366,0,0,0,365,366,0,0,0,365,366,0,0,0,0,0,0,0,0,0,0,0,0,0,0,0,0,0,0,0,381,382,0,0,0,381,382,0,0,0,381,382,0,0,0,381,382,0,0,0,0,0,0,0,0,0,0,0,0,0,0,0,0,0,0,18,19,20,0,0,18,19,20,0,0,18,19,20,0,0,18,19,20,0,0,0,0,0,0,0,0,0,0,0,0,0,0,0,0,0,0,0,0,0,0,0,0,0,0,0,0,0,0,0,0,0,0,0,0,0,0,0,0,0,0,0,0,0,0,0,0,0,0,0,0,0,0,0,0,0,0,0,0,0,0,0,0,0,0,0,0,0,0,0,0,0,0,0,0,0,0,0,0,0,0,0,0,0,0,0,0,0,0,0,0,0,0,0,0,0,0,0,0,0,0,0,0,0,0,0,0,0,0,0,0,0,0,0,0,0,0,0,0,0,0,0,0,0,0,0,365,366,0,0,0,365,366,0,0,0,365,366,0,0,0,365,366,0,0,0,0,0,0,0,0,0,0,0,0,0,0,0,0,0,0,0,381,382,0,0,0,381,382,0,0,0,381,382,0,0,0,381,382,0,0,0,0,0,0,0,0,0,0,0,0,0,0,0,0,0,0,18,19,20,0,0,18,19,20,0,0,18,19,20,0,0,18,19,20,0,0,0,0,0,0,0,0,0,0,0,0,0,0,0,0,0,0,0,0,0,0,0,0,0,0,0,0,0,0,0,0,0,0,0,0,0,0,0,0,0,0,0,0,0,0,0,0,0,0,0,0,0,0,0,0,0,0,0,0,0,0,0,0,0,0,0,0,0,0,0,0,0,0,0,0,0,0,0,0,0,0,0,0,0,0,0,0,0,0,0,0,0,0,0,0,0,0,0,0,0,0,0,0,0,0,0,0,0,0,0,0,0,0,0,0,0,0,0,0,0,0,0,0,0,0,0,0,0,0,0,0,0,0,0,0,0,0,0,0,0,0,0,0,0,0,0,0,0,0,0,0,0,0,0,0,0,0],"width":36,"height":24,"x":0,"y":0,"opacity":1,"visible":true},{"id":5,"name":"collision","type":"tilelayer","data":[1,1,1,1,1,1,1,1,1,1,1,1,1,1,1,1,1,1,1,1,1,1,1,1,1,1,1,1,1,1,1,1,1,1,1,1,1,0,0,0,0,0,0,0,0,0,0,1,0,0,0,0,0,0,0,0,0,0,0,0,0,0,0,1,0,0,0,0,0,0,0,1,1,0,0,0,0,0,0,0,0,0,0,1,0,0,0,0,0,0,0,0,0,0,0,0,0,0,0,1,0,0,0,0,0,0,0,1,1,0,0,0,0,0,0,0,0,0,0,1,0,0,0,0,0,0,0,0,0,0,0,0,0,0,0,1,0,0,0,1,1,0,0,1,1,0,0,0,0,0,0,0,0,0,0,1,0,0,0,0,0,0,0,0,0,0,0,0,0,0,0,1,0,0,1,1,1,0,0,1,1,0,0,0,0,0,0,0,0,0,0,1,0,0,0,0,0,0,0,0,0,0,0,0,0,0,0,1,0,0,1,0,1,0,0,1,1,0,0,0,0,0,0,0,0,0,0,1,0,0,0,0,0,0,0,0,0,0,0,0,0,0,0,1,0,0,0,0,0,0,0,1,1,0,0,0,0,0,0,0,0,0,0,1,0,0,0,0,0,0,0,0,0,0,0,0,0,0,0,1,0,0,0,0,0,0,0,1,1,1,1,1,1,0,0,1,1,1,1,1,0,0,0,0,0,0,0,0,0,0,0,0,0,0,0,1,1,1,0,0,1,1,1,1,1,0,0,0,0,0,0,0,0,0,0,0,0,0,0,0,0,0,0,0,0,0,0,0,0,0,0,1,0,0,0,0,0,0,0,1,1,0,0,0,0,0,0,0,0,0,0,0,0,0,0,0,0,0,0,0,0,0,0,0,0,0,0,1,0,0,0,0,0,0,0,1,1,0,0,0,0,1,1,0,0,0,1,1,0,0,0,1,1,0,0,0,1,1,0,0,0,0,0,0,0,0,0,0,0,0,0,1,1,0,0,0,1,1,1,0,0,1,1,1,0,0,1,1,1,0,0,1,1,1,0,0,0,0,0,0,0,0,0,0,0,0,0,1,1,0,0,0,1,0,1,0,0,1,0,1,0,0,1,0,1,0,0,1,0,1,0,0,0,0,0,1,0,0,0,0,0,0,0,1,1,0,0,0,0,0,0,0,0,0,0,0,0,0,0,0,0,0,0,0,0,0,0,0,0,0,0,1,0,0,0,0,0,0,0,1,1,0,0,0,0,0,0,0,0,0,0,0,0,0,0,0,0,0,0,0,0,0,0,0,0,0,0,1,0,0,0,0,0,0,0,1,1,0,0,0,0,0,0,0,0,0,0,0,0,0,0,0,0,0,0,0,0,0,0,0,0,0,0,1,0,0,0,0,0,0,0,1,1,0,0,0,0,1,1,0,0,0,1,1,0,0,0,1,1,0,0,0,1,1,0,0,0,0,0,1,0,0,0,0,0,0,0,1,1,0,0,0,1,1,1,0,0,1,1,1,0,0,1,1,1,0,0,1,1,1,0,0,0,0,0,1,0,0,0,0,0,0,0,1,1,0,0,0,1,0,1,0,0,1,0,1,0,0,1,0,1,0,0,1,0,1,0,0,0,0,0,1,0,0,0,0,0,0,0,1,1,0,0,0,0,0,0,0,0,0,0,0,0,0,0,0,0,0,0,0,0,0,0,0,0,0,0,1,0,0,0,0,0,0,0,1,1,0,0,0,0,0,0,0,0,0,0,0,0,0,0,0,0,0,0,0,0,0,0,0,0,0,0,1,0,0,0,0,0,0,0,1,1,0,0,0,0,0,0,0,0,0,0,0,0,0,0,0,0,0,0,0,0,0,0,0,0,0,0,1,0,0,0,0,0,0,0,1,1,1,1,1,1,1,1,1,1,1,1,1,1,1,1,1,1,0,0,1,1,1,1,1,1,1,1,1,1,1,1,1,1,1,1,1],"width":36,"height":24,"x":0,"y":0,"opacity":1,"visible":true},{"id":6,"name":"spawn-points","type":"objectgroup","objects":[{"id":1,"name":"desk-ceo","point":true,"x":744,"y":120,"width":0,"height":0,"rotation":0,"type":"","visible":true},{"id":2,"name":"pc-1","point":true,"x":120,"y":312,"width":0,"height":0,"rotation":0,"type":"","visible":true},{"id":3,"name":"pc-2","point":true,"x":240,"y":312,"width":0,"height":0,"rotation":0,"type":"","visible":true},{"id":4,"name":"pc-3","point":true,"x":360,"y":312,"width":0,"height":0,"rotation":0,"type":"","visible":true},{"id":5,"name":"pc-4","point":true,"x":480,"y":312,"width":0,"height":0,"rotation":0,"type":"","visible":true},{"id":6,"name":"pc-5","point":true,"x":120,"y":456,"width":0,"height":0,"rotation":0,"type":"","visible":true},{"id":7,"name":"pc-6","point":true,"x":240,"y":456,"width":0,"height":0,"rotation":0,"type":"","visible":true},{"id":8,"name":"pc-7","point":true,"x":360,"y":456,"width":0,"height":0,"rotation":0,"type":"","visible":true},{"id":9,"name":"pc-8","point":true,"x":480,"y":456,"width":0,"height":0,"rotation":0,"type":"","visible":true},{"id":10,"name":"cafe-seat-1","point":true,"x":696,"y":336,"width":0,"height":0,"rotation":0,"type":"","visible":true},{"id":11,"name":"cafe-seat-2","point":true,"x":696,"y":384,"width":0,"height":0,"rotation":0,"type":"","visible":true},{"id":12,"name":"cafe-seat-3","point":true,"x":768,"y":336,"width":0,"height":0,"rotation":0,"type":"","visible":true},{"id":13,"name":"cafe-seat-4","point":true,"x":768,"y":384,"width":0,"height":0,"rotation":0,"type":"","visible":true},{"id":14,"name":"cafe-stand-coffee","point":true,"x":720,"y":480,"width":0,"height":0,"rotation":0,"type":"","visible":true},{"id":15,"name":"cafe-stand-vending","point":true,"x":792,"y":288,"width":0,"height":0,"rotation":0,"type":"","visible":true},{"id":16,"name":"entrance","point":true,"x":408,"y":528,"width":0,"height":0,"rotation":0,"type":"","visible":true}],"draworder":"topdown","opacity":1,"visible":true,"x":0,"y":0},{"id":7,"name":"zones","type":"objectgroup","objects":[{"id":17,"name":"boardroom","x":48,"y":48,"width":192,"height":120,"rotation":0,"type":"","visible":true},{"id":18,"name":"cafeteria","x":672,"y":240,"width":168,"height":288,"rotation":0,"type":"","visible":true},{"id":19,"name":"holding","x":24,"y":432,"width":96,"height":96,"rotation":0,"type":"","visible":true}],"draworder":"topdown","opacity":1,"visible":true,"x":0,"y":0}]}